icons/patient_band_alt.svg

<svg width="48" height="48" viewBox="0 0 48 48" fill="none" xmlns="http://www.w3.org/2000/svg">
<path fill-rule="evenodd" clip-rule="evenodd" d="M7.73616 16.5645C7.26481 16.0932 7 15.4539 7 14.7873V13.2426C7 12.9774 6.89465 12.723 6.70711 12.5355L5 10.8284C3.4379 9.26627 3.43791 6.73361 5 5.17151L5.17158 4.99994C6.73367 3.43785 9.26633 3.43784 10.8284 4.99994L12.5355 6.70705C12.7231 6.89459 12.9774 6.99994 13.2426 6.99994H14.7873C15.4539 6.99994 16.0932 7.26475 16.5646 7.7361L25.3536 16.5251C26.4078 17.5793 27 19.0091 27 20.4999C27 20.9299 27.1708 21.3423 27.4749 21.6464L42.9142 37.0857C44.5237 38.6952 44.5237 41.3047 42.9142 42.9142C41.3047 44.5236 38.6953 44.5236 37.0858 42.9142L21.6465 27.4748C21.3424 27.1708 20.93 26.9999 20.5 26.9999C19.0091 26.9999 17.5793 26.4077 16.5251 25.3535L7.73616 16.5645ZM6.41422 6.58573L6.58579 6.41416C7.36684 5.63311 8.63317 5.63311 9.41422 6.41416L11.1213 8.12126C11.6839 8.68387 12.447 8.99994 13.2426 8.99994H14.7873C14.9235 8.99994 15.0541 9.05403 15.1504 9.15032L23.9393 17.9393C24.6185 18.6184 25 19.5395 25 20.4999C25 21.4604 25.3815 22.3815 26.0607 23.0606L41.5 38.4999C42.3284 39.3284 42.3284 40.6715 41.5 41.4999C40.6716 42.3284 39.3284 42.3284 38.5 41.4999L23.0607 26.0606C22.3815 25.3815 21.4604 24.9999 20.5 24.9999C19.5396 24.9999 18.6185 24.6184 17.9393 23.9393L9.15038 15.1503C9.0541 15.054 9 14.9234 9 14.7873V13.2426C9 12.4469 8.68393 11.6839 8.12132 11.1213L6.41422 9.41415C5.63317 8.63311 5.63317 7.36678 6.41422 6.58573Z" fill="black"/>
<path d="M27 25.9999C27 26.5522 26.5523 26.9999 26 26.9999C25.4477 26.9999 25 26.5522 25 25.9999C25 25.4477 25.4477 24.9999 26 24.9999C26.5523 24.9999 27 25.4477 27 25.9999Z" fill="black"/>
<path d="M9 7.99994C9 8.55223 8.55229 8.99994 8 8.99994C7.44772 8.99994 7 8.55223 7 7.99994C7 7.44766 7.44772 6.99994 8 6.99994C8.55229 6.99994 9 7.44766 9 7.99994Z" fill="black"/>
<path d="M30 28.9999C30 29.5522 29.5523 29.9999 29 29.9999C28.4477 29.9999 28 29.5522 28 28.9999C28 28.4477 28.4477 27.9999 29 27.9999C29.5523 27.9999 30 28.4477 30 28.9999Z" fill="black"/>
<path d="M33 31.9999C33 32.5522 32.5523 32.9999 32 32.9999C31.4477 32.9999 31 32.5522 31 31.9999C31 31.4477 31.4477 30.9999 32 30.9999C32.5523 30.9999 33 31.4477 33 31.9999Z" fill="black"/>
<path d="M36 34.9999C36 35.5522 35.5523 35.9999 35 35.9999C34.4477 35.9999 34 35.5522 34 34.9999C34 34.4477 34.4477 33.9999 35 33.9999C35.5523 33.9999 36 34.4477 36 34.9999Z" fill="black"/>
<path d="M39 37.9999C39 38.5522 38.5523 38.9999 38 38.9999C37.4477 38.9999 37 38.5522 37 37.9999C37 37.4477 37.4477 36.9999 38 36.9999C38.5523 36.9999 39 37.4477 39 37.9999Z" fill="black"/>
<path fill-rule="evenodd" clip-rule="evenodd" d="M12.5858 10.9999C13.3668 10.2189 14.6332 10.2189 15.4142 10.9999L23 18.5857C23.7811 19.3668 23.7811 20.6331 23 21.4142L21.4142 22.9999C20.6332 23.781 19.3668 23.781 18.5858 22.9999L11 15.4142C10.219 14.6331 10.219 13.3668 11 12.5857L12.5858 10.9999ZM14 12.4142L12.4142 13.9999L20 21.5857L21.5858 19.9999L14 12.4142Z" fill="black"/>
</svg>

<svg
  xmlns="http://www.w3.org/2000/svg"
  width="24"
  height="24"
  viewBox="0 0 24 24"
  fill="none"
  stroke="currentColor"
  stroke-width="2"
  stroke-linecap="round"
  stroke-linejoin="round"
>
  <path
    fill-rule="evenodd"
    d="M7.736 16.565A2.51 2.51 0 0 1 7 14.786v-1.544a1 1 0 0 0-.293-.707L5 10.828a4 4 0 0 1 0-5.656L5.172 5a4 4 0 0 1 5.656 0l1.708 1.707a1 1 0 0 0 .707.293h1.544c.667 0 1.306.265 1.778.736l8.789 8.79A5.62 5.62 0 0 1 27 20.5c0 .43.17.842.475 1.146l15.44 15.44a4.121 4.121 0 0 1-5.83 5.828l-15.439-15.44A1.62 1.62 0 0 0 20.5 27c-1.49 0-2.92-.592-3.975-1.646zm-1.322-9.98.172-.17a2 2 0 0 1 2.828 0l1.707 1.706A3 3 0 0 0 13.243 9h1.544c.136 0 .267.054.363.15l8.79 8.79c.678.678 1.06 1.6 1.06 2.56s.381 1.881 1.06 2.56L41.5 38.5a2.121 2.121 0 0 1-3 3L23.06 26.06c-.678-.678-1.6-1.06-2.56-1.06s-1.881-.382-2.56-1.06l-8.79-8.79a.51.51 0 0 1-.15-.363v-1.544a3 3 0 0 0-.879-2.122L6.414 9.414a2 2 0 0 1 0-2.828"
    clip-rule="evenodd"
  />
  <path d="M27 26a1 1 0 1 1-2 0 1 1 0 0 1 2 0" />
  <path d="M9 8a1 1 0 1 1-2 0 1 1 0 0 1 2 0" />
  <path d="M30 29a1 1 0 1 1-2 0 1 1 0 0 1 2 0" />
  <path d="M33 32a1 1 0 1 1-2 0 1 1 0 0 1 2 0" />
  <path d="M36 35a1 1 0 1 1-2 0 1 1 0 0 1 2 0" />
  <path d="M39 38a1 1 0 1 1-2 0 1 1 0 0 1 2 0" />
  <path
    fill-rule="evenodd"
    d="M12.586 11a2 2 0 0 1 2.828 0L23 18.586a2 2 0 0 1 0 2.828L21.414 23a2 2 0 0 1-2.828 0L11 15.414a2 2 0 0 1 0-2.828zM14 12.414 12.414 14 20 21.586 21.586 20z"
    clip-rule="evenodd"
  />
</svg>
